Sources/FrostedUI/Resources/Icons.xcassets/globe20.imageset/globe-20.svg

<svg width="20" height="20" viewBox="0 0 20 20" fill="none" xmlns="http://www.w3.org/2000/svg" data-fui-icon="true">
  <path
    d="M10 1C14.9706 1 19 5.02944 19 10C19 14.9706 14.9706 19 10 19C5.02944 19 1 14.9706 1 10C1 5.02944 5.02944 1 10 1ZM7.81934 13.5C7.96959 14.274 8.16709 14.9688 8.39941 15.5586C8.67317 16.2535 8.98122 16.7655 9.28418 17.0908C9.58596 17.4147 9.82838 17.5 10 17.5C10.1716 17.5 10.414 17.4147 10.7158 17.0908C11.0188 16.7655 11.3268 16.2535 11.6006 15.5586C11.8329 14.9688 12.0304 14.274 12.1807 13.5H7.81934ZM3.36621 13.5C4.23126 15.1362 5.6832 16.4136 7.44238 17.0518C7.28263 16.7591 7.13569 16.4429 7.00391 16.1084C6.7056 15.3511 6.46581 14.4684 6.29492 13.5H3.36621ZM13.7051 13.5C13.5342 14.4684 13.2944 15.3511 12.9961 16.1084C12.8642 16.4431 12.7165 16.7589 12.5566 17.0518C14.3162 16.4137 15.7686 15.1365 16.6338 13.5H13.7051ZM13.9062 8C13.9671 8.64449 14 9.31418 14 10C14 10.6858 13.9671 11.3555 13.9062 12H17.2285C17.4043 11.3631 17.5 10.6928 17.5 10C17.5 9.30722 17.4043 8.63686 17.2285 8H13.9062ZM7.59961 8C7.53472 8.63565 7.5 9.30582 7.5 10C7.5 10.6942 7.53472 11.3643 7.59961 12H12.4004C12.4653 11.3643 12.5 10.6942 12.5 10C12.5 9.30582 12.4653 8.63565 12.4004 8H7.59961ZM2.77148 8C2.59567 8.63686 2.5 9.30722 2.5 10C2.5 10.6928 2.59567 11.3631 2.77148 12H6.09375C6.03293 11.3555 6 10.6858 6 10C6 9.31418 6.03293 8.64449 6.09375 8H2.77148ZM7.44238 2.94727C5.68306 3.58541 4.23131 4.86371 3.36621 6.5H6.29492C6.46581 5.53159 6.7056 4.64889 7.00391 3.8916C7.1358 3.55678 7.28247 3.24018 7.44238 2.94727ZM10 2.5C9.82838 2.5 9.58596 2.58529 9.28418 2.90918C8.98122 3.23446 8.67317 3.74649 8.39941 4.44141C8.16709 5.03119 7.96959 5.72604 7.81934 6.5H12.1807C12.0304 5.72604 11.8329 5.03119 11.6006 4.44141C11.3268 3.74649 11.0188 3.23446 10.7158 2.90918C10.414 2.58529 10.1716 2.5 10 2.5ZM12.5566 2.94727C12.7166 3.24029 12.8641 3.55663 12.9961 3.8916C13.2944 4.64889 13.5342 5.53159 13.7051 6.5H16.6338C15.7685 4.86344 14.3164 3.5853 12.5566 2.94727Z"
    fill="currentColor"
  />
</svg>

<svg xmlns="http://www.w3.org/2000/svg" width="20" height="20" fill="none" data-fui-icon="true" viewBox="0 0 20 20"><path fill="currentColor" d="M10 1a9 9 0 1 1 0 18 9 9 0 0 1 0-18M7.82 13.5c.15.774.347 1.469.58 2.059.273.694.581 1.207.884 1.532.302.324.544.409.716.409s.414-.085.716-.41c.303-.325.61-.837.885-1.531.232-.59.43-1.285.58-2.059zm-4.454 0a7.52 7.52 0 0 0 4.076 3.552 8 8 0 0 1-.438-.944 13.7 13.7 0 0 1-.71-2.608zm10.34 0c-.172.968-.412 1.851-.71 2.608q-.199.503-.44.944a7.52 7.52 0 0 0 4.078-3.552zm.2-5.5a21.3 21.3 0 0 1 0 4h3.323a7.5 7.5 0 0 0 0-4zM7.6 8c-.065.636-.1 1.306-.1 2s.035 1.364.1 2h4.8c.065-.636.1-1.306.1-2s-.035-1.364-.1-2zM2.77 8a7.5 7.5 0 0 0 0 4h3.323a21.3 21.3 0 0 1 0-4zm4.671-5.053A7.52 7.52 0 0 0 3.366 6.5h2.929c.17-.968.41-1.851.709-2.608q.198-.504.438-.945M10 2.5c-.172 0-.414.085-.716.41-.303.324-.61.836-.885 1.531-.232.59-.43 1.285-.58 2.059h4.362a12 12 0 0 0-.58-2.059c-.274-.695-.582-1.207-.885-1.532-.302-.324-.544-.409-.716-.409m2.557.447q.24.441.44.945c.297.757.537 1.64.708 2.608h2.929a7.52 7.52 0 0 0-4.077-3.553"/></svg>
